modules/stroke-7/icons/server.svg

<?xml version="1.0" encoding="utf-8"?>
<!-- Generated by IcoMoon.io -->
<!DOCTYPE svg PUBLIC "-//W3C//DTD SVG 1.1//EN" "http://www.w3.org/Graphics/SVG/1.1/DTD/svg11.dtd">
<svg version="1.1" xmlns="http://www.w3.org/2000/svg" xmlns:xlink="http://www.w3.org/1999/xlink" width="32" height="32" viewBox="0 0 32 32">
<g id="icomoon-ignore">
</g>
<path d="M16 2.139c-6.772 0-12.262 2.626-12.262 5.865v15.994c0 3.238 5.489 5.864 12.262 5.864 6.771 0 12.262-2.626 12.262-5.864v-15.994c0-3.239-5.491-5.865-12.262-5.865zM16 3.205c6.597 0 11.196 2.529 11.196 4.799 0 2.269-4.598 4.798-11.196 4.798-6.598 0-11.196-2.529-11.196-4.798 0-2.27 4.597-4.799 11.196-4.799zM27.196 22.931v1.066c0 2.269-4.598 4.798-11.196 4.798-6.598 0-11.196-2.529-11.196-4.798v-2.941c1.914 2.046 6.205 3.473 11.196 3.473 4.99 0 9.282-1.427 11.196-3.473v1.874zM27.196 18.666c0 2.269-4.598 4.798-11.196 4.798-6.598 0-11.196-2.529-11.196-4.798v-2.941c1.914 2.046 6.205 3.473 11.196 3.473 4.99 0 9.282-1.427 11.196-3.473v2.941zM27.196 13.335c0 2.269-4.598 4.798-11.196 4.798-6.598 0-11.196-2.529-11.196-4.798v-2.941c1.914 2.046 6.205 3.473 11.196 3.473 4.99 0 9.282-1.427 11.196-3.473v2.941z" fill="#000000"></path>
</svg>

<svg xmlns="http://www.w3.org/2000/svg" width="32" height="32"><path d="M16 2.139c-6.772 0-12.262 2.626-12.262 5.865v15.994c0 3.238 5.489 5.864 12.262 5.864 6.771 0 12.262-2.626 12.262-5.864V8.004c0-3.239-5.491-5.865-12.262-5.865zm0 1.066c6.597 0 11.196 2.529 11.196 4.799 0 2.269-4.598 4.798-11.196 4.798S4.804 10.273 4.804 8.004c0-2.27 4.597-4.799 11.196-4.799zm11.196 19.726v1.066c0 2.269-4.598 4.798-11.196 4.798S4.804 26.266 4.804 23.997v-2.941c1.914 2.046 6.205 3.473 11.196 3.473 4.99 0 9.282-1.427 11.196-3.473v1.874zm0-4.265c0 2.269-4.598 4.798-11.196 4.798S4.804 20.935 4.804 18.666v-2.941c1.914 2.046 6.205 3.473 11.196 3.473 4.99 0 9.282-1.427 11.196-3.473v2.941zm0-5.331c0 2.269-4.598 4.798-11.196 4.798S4.804 15.604 4.804 13.335v-2.941C6.718 12.44 11.009 13.867 16 13.867c4.99 0 9.282-1.427 11.196-3.473v2.941z"/></svg>
